X:1
T:Ellingham (Wesley), 10.10.10.10
T:Samuel Sebastian Wesley (1810-1876)
T:Ellingham (Wesley), 10.10.10.10
T:Public Domain
C:Samuel Sebastian Wesley (1810-1876)
Z:Public Domain
%%score ( 1 2 ) ( 3 4 )
L:1/8
M:none
K:Eb
V:1 treble 
V:2 treble 
V:3 bass 
V:4 bass 
V:1
 [EG]4 [EG]2 [DF]2 | E4 E4 | [EF]2 [EG]2 [EA]2 [FB]2 | [B,G]4 [DB]4 | [Ee]4 [Ed]4 | [Ec]4 [EB]4 | %6
 [DB]2 [DA]2 [EG]2 [FA]2 | [DF]6 [DF]2 | [EB]4 (G2 F2) | [DF]4 E4 | [Ec]2 [EB]2 [DA]2 [EG]2 | %11
 [DF]8 | E4 [DA]2 [EG]2 | [CF]2 [B,D]2 E2 [EA]2 | [EG]4 [DF]4 | E8 |] %16
V:2
 x8 | E4 E4 | x8 | x8 | x8 | x8 | x8 | x8 | x4 D4 | x4 E4 | x8 | x8 | E4 x4 | x4 E2 x2 | x8 | E8 |] %16
V:3
 [E,B,]4 [B,,B,]2 [A,,B,]2 | [G,,B,]4 [C,G,]4 | [A,,C]2 [B,,B,]2 [C,A,]2 [D,F,]2 | %3
 [E,G,]4 (B,,2 A,,2) | [G,,B,]4 [G,B,]4 | A,4 [G,B,]4 | [F,B,]2 [F,B,]2 [E,B,]2 [A,,C]2 | %7
 [B,,B,]6 [B,,B,]2 | [G,,B,]4 (B,2 A,2) | [C,A,]4 [C,G,]4 | A,2 [G,B,]2 [F,B,]2 [E,B,]2 | %11
 [B,,B,]8 | [G,B,]4 [F,B,]2 [E,B,]2 | [A,,A,]2 [B,,A,]2 [C,G,]2 [A,,C]2 | [B,,B,]4 (B,2 A,2) | %15
 [E,G,]8 |] %16
V:4
 x8 | x8 | x8 | x4 F,4 | x8 | A,4 x4 | x8 | x8 | x4 B,,4 | x8 | A,2 x6 | x8 | x8 | x8 | x4 B,,4 | %15
 x8 |] %16

